icons/14x14_invoice_filled.svg

<svg width="14" height="14" fill="none" xmlns="http://www.w3.org/2000/svg"><path fill-rule="evenodd" clip-rule="evenodd" d="M3 13a2 2 0 0 1-2-2V8h2V1h10v10a2 2 0 0 1-2 2H3Zm3-5v1h4V8H6Zm0-3v1h4V5H6Z" fill="#000"/></svg>

<svg xmlns="http://www.w3.org/2000/svg" width="14" height="14" viewBox="0 0 14 14">
  <path fill-rule="evenodd" d="M3,13 C1.8954305,13 1,12.1045695 1,11 L1,8 L3,8 L3,1 L13,1 L13,11 C13,12.1045695 12.1045695,13 11,13 L3,13 Z M6,8 L6,9 L10,9 L10,8 L6,8 Z M6,5 L6,6 L10,6 L10,5 L6,5 Z"/>
</svg>
